style-img/Slide 16_9 - 28.svg

<svg width="1440" height="810" fill="none" xmlns="http://www.w3.org/2000/svg"><path d="M162.34 186.972v5.46h47.528v-5.46H162.34Zm13.988-3.12v16.016h18.616v-16.016h-5.668v11.492h-7.488v-11.492h-5.46Zm-6.604 13.676v21.58h5.512v-21.58h-5.512Zm-6.656 3.484v5.252h9.568v-5.252h-9.568Zm-1.196 11.908 1.144 5.356c3.12-1.04 6.448-2.184 9.724-3.38l-.728-4.732c-3.848 1.04-7.436 2.132-10.14 2.756Zm34.216-15.34v14.508c0 4.888.936 6.448 5.408 6.448h3.484c3.328 0 4.68-1.716 5.2-7.488-1.456-.364-3.692-1.196-4.732-2.08-.156 4.004-.364 4.68-1.144 4.68h-1.82c-.676 0-.78-.156-.78-1.612V197.58h-5.616Zm10.036 2.132c-1.924 1.664-4.992 3.64-7.748 4.992.624 1.092 1.404 2.912 1.716 4.056 3.016-1.196 6.708-2.86 9.828-4.68l-3.796-4.368Zm-23.14 7.02h5.148v6.24h-5.148v-6.24Zm-5.044-4.472v15.236h15.496V202.26H177.94Zm-.728 19.5c.624 3.38 1.04 7.748 1.04 10.452l6.136-.936c-.052-2.6-.676-6.916-1.404-10.192l-5.772.676Zm10.348.104c1.248 3.328 2.444 7.696 2.808 10.348l6.24-1.248c-.468-2.704-1.82-6.916-3.172-10.088l-5.876.988Zm10.452-.312c2.444 3.484 5.356 8.268 6.5 11.18l6.188-2.652c-1.352-2.964-4.472-7.54-6.916-10.816l-5.772 2.288Zm-30.264-1.82c-1.352 3.9-3.9 8.008-6.448 10.244l5.876 2.548c2.808-2.808 5.252-7.124 6.604-11.284l-6.032-1.508Zm47.424-31.46v5.408h45.708v-5.408h-45.708Zm30.264 24.024v.832c-4.16 8.84-16.068 12.948-29.536 14.3.988 1.352 2.132 3.744 2.6 5.304 14.664-2.028 27.456-6.916 33.072-18.668l-3.9-1.976-1.04.208h-1.196Zm-11.7-3.64c-3.172 3.64-8.788 7.488-16.276 10.296 1.3.832 3.12 2.756 4.004 4.056 7.956-3.484 13.884-7.8 18.512-12.948l-6.24-1.404Zm-1.092 3.64-4.524 4.524h19.292v-4.524h-14.768Zm2.184-28.496v24.856h5.98V183.8h-5.98Zm.364 13.052c-4.264 6.708-12.844 12.324-22.152 14.82 1.196 1.144 2.808 3.328 3.588 4.732 9.724-3.172 18.148-9.62 23.14-17.836l-4.576-1.716Zm5.356.052-4.628 1.872c5.2 8.06 13.884 14.768 23.296 18.096.832-1.456 2.548-3.692 3.796-4.836-9.256-2.704-18.044-8.528-22.464-15.132Zm-17.212-3.432c-1.508 4.264-4.732 7.904-8.892 10.14 1.196.78 3.224 2.548 4.108 3.536 4.316-2.808 8.06-7.228 10.036-12.636l-5.252-1.04Zm-1.248 6.864c1.976 1.3 4.628 3.172 5.876 4.368l3.276-3.952c-1.352-1.144-4.056-2.86-6.032-3.952l-3.12 3.536Zm26.988-6.812c-1.196 3.276-3.536 6.344-6.396 8.32 1.196.832 3.172 2.6 4.108 3.588 3.068-2.496 5.876-6.448 7.436-10.608l-5.148-1.3Zm-1.196 6.604c3.38 2.028 7.852 5.148 10.036 7.072l3.276-3.952c-2.288-1.872-6.864-4.732-10.14-6.604l-3.172 3.484Zm-20.54 21.788c8.528 2.964 20.28 7.8 25.948 10.92l5.46-4.316c-6.5-3.224-18.356-7.696-26.364-10.296l-5.044 3.692Zm38.584-27.716v5.772h16.848V194.2h-16.848Zm7.02-10.348c-1.612 10.348-4.472 24.076-6.708 32.292l5.096 2.704c2.444-9.36 5.46-23.296 7.488-34.372l-5.876-.624Zm-3.952 31.46c4.94 3.224 10.92 8.164 13.572 11.752l3.692-4.992c-2.756-3.536-8.944-8.112-13.884-11.18l-3.38 4.42Zm11.596-21.112v1.144c-.988 16.432-5.668 27.924-14.56 32.552 1.248 1.196 2.912 3.432 3.744 4.94 10.4-6.344 15.444-17.836 16.692-38.168l-3.744-.624-1.092.156h-1.04Zm5.616-7.592v5.616h17.004v-5.616h-17.004Zm17.42 14.352-.78 5.616h7.488v-5.616h-6.708Zm4.628 0v1.092c-.52 16.172-1.248 22.516-2.496 23.92-.572.624-1.092.728-1.976.728-1.092 0-3.484 0-5.98-.208.988 1.612 1.716 4.108 1.82 5.824 2.704.156 5.304.156 6.968-.104 1.82-.26 3.068-.78 4.368-2.444 1.768-2.132 2.392-8.84 3.068-26.26.052-.728.104-2.548.104-2.548h-5.876Zm-17.42-12.428c-.104 15.34.052 30.784-7.436 40.092 1.56.936 3.536 2.756 4.524 4.16 8.32-10.556 8.84-27.456 9.048-44.252h-6.136Zm10.816-1.924c-.26 7.02-1.04 16.068-1.924 21.736l5.668.416c.78-5.72 1.56-14.872 1.976-22.152h-5.72Zm18.044 9.308v9.568h5.876V200.7h32.604v5.512h6.188v-10.296h-44.668Zm38.012-12.168c-8.632 1.768-23.764 2.756-36.608 3.016.52 1.144 1.092 3.224 1.196 4.524 13.156-.208 28.756-1.144 39.52-3.38l-4.108-4.16Zm-31.72 7.696c1.352 1.82 2.756 4.368 3.224 6.032l5.252-2.184c-.572-1.768-2.08-4.16-3.588-5.876l-4.888 2.028Zm11.232-1.04c1.352 1.976 2.6 4.732 2.964 6.448l5.304-1.924c-.468-1.82-1.872-4.42-3.276-6.344l-4.992 1.82Zm13.052 14.56c2.964 2.392 6.448 5.928 7.956 8.32l4.472-3.328c-1.612-2.444-5.252-5.772-8.268-7.956l-4.16 2.964Zm-13.364-3.016c2.704 1.144 5.876 3.068 7.488 4.472l3.12-3.484c-1.664-1.404-4.992-3.12-7.592-4.16l-3.016 3.172Zm16.796-13.364c-.884 2.288-2.652 5.46-4.056 7.592l4.68 1.768c1.612-1.82 3.588-4.628 5.512-7.384l-6.136-1.976Zm-2.86 26v.884c-4.888 7.852-17.784 11.18-32.344 12.22 1.144 1.196 2.704 3.692 3.276 5.148 14.872-1.664 28.756-5.772 35.204-15.912l-3.9-2.496-.988.156h-1.248Zm-16.9 2.964-4.836 1.872c7.02 8.216 18.72 12.064 33.228 13.312.78-1.612 2.288-4.212 3.588-5.512-14.144-.728-26.104-3.64-31.98-9.672Zm2.704-7.124c-3.536 4.42-10.244 8.008-17.004 10.088 1.196.936 3.276 3.016 4.212 4.108 6.604-2.6 13.832-6.916 18.148-12.324l-5.356-1.872Zm-4.16-7.436v3.64c0 4.316 1.352 5.564 7.072 5.564h6.916c3.9 0 5.356-1.04 5.876-5.096-1.456-.26-3.64-.936-4.732-1.664-.208 2.132-.52 2.444-1.82 2.444h-5.46c-1.768 0-2.132-.104-2.132-1.3v-3.588h-5.72Zm-4.784-.052c-1.248 2.86-3.588 5.72-6.552 7.384l4.264 3.484c3.38-2.184 5.564-5.512 6.968-8.84l-4.68-2.028Zm7.592 11.648-4.264 4.264h21.216v-4.264h-16.952Zm56.212-28.132v5.772h21.112v-5.772h-21.112Zm-1.768 18.096v5.876h28.704v-5.876h-28.704Zm10.972-6.084v27.196c0 .728-.26.936-1.092.988-.884.052-3.588 0-6.24-.104.832 1.664 1.872 4.368 2.184 6.084 3.848.052 6.708-.156 8.788-1.092 2.028-.988 2.652-2.652 2.652-5.772v-27.3h-6.292Zm9.672-12.012v1.352c-1.56 3.12-5.148 8.268-8.216 11.232.988.832 2.704 2.548 3.536 3.64 4.056-3.432 8.476-8.944 11.544-13.468l-4.056-3.068-1.3.312h-1.508Zm-40.456 7.748v5.772h16.796V194.2h-16.796Zm6.968-10.348c-1.612 10.348-4.42 24.076-6.656 32.292l5.096 2.704c2.444-9.36 5.46-23.296 7.436-34.372l-5.876-.624Zm-3.952 31.408c5.46 3.588 12.064 9.048 14.976 13l3.744-5.044c-3.016-3.9-9.88-8.944-15.288-12.324l-3.432 4.368Zm11.648-21.06v1.144c-1.04 16.432-5.668 27.924-14.508 32.552 1.248 1.196 2.912 3.432 3.744 4.94 10.296-6.396 15.34-17.888 16.536-38.168l-3.692-.624-1.092.156h-.988Zm37.96 5.408v5.512h46.8v-5.512h-46.8Zm4.524-10.14v5.408h29.744v-5.408h-29.744Zm9.152 28.288v4.68h23.244v-4.68h-23.244Zm0 8.164v5.252h23.244v-5.252h-23.244Zm3.12-42.068v18.824h6.136v-18.824h-6.136Zm22.88 1.508c-9.1 13.052-24.388 22.984-41.288 28.392 1.144 1.248 3.016 3.848 3.744 5.2 16.848-6.188 32.708-16.64 42.9-30.836l-5.356-2.756Zm-29.484 23.92v23.452h6.24v-18.356h17.94v18.148h6.5V209.28h-30.68Zm54.184-13.728v27.196c0 7.228 1.976 9.308 8.996 9.308h9.204c6.448 0 8.268-3.016 9.1-12.48-1.82-.364-4.628-1.56-6.084-2.652-.416 7.436-.884 8.892-3.536 8.892H496.7c-2.704 0-3.12-.364-3.12-3.016v-27.248h-6.656Zm.624-7.228c4.108 2.808 9.464 6.916 12.428 9.464l4.108-5.148c-2.964-2.288-8.268-6.188-12.48-8.84l-4.056 4.524Zm-8.944 9.62c-.936 6.136-2.86 12.74-5.512 17.264l6.084 2.236c2.6-4.472 4.264-11.856 5.408-17.992l-5.98-1.508Zm30.628 6.136c3.12 4.94 6.344 11.648 7.54 16.016l6.032-3.068c-1.404-4.368-4.628-10.712-7.904-15.6l-5.668 2.652Zm2.496-17.212c-6.968 14.664-20.852 30.264-38.48 38.324 1.3 1.248 3.12 3.536 4.056 4.992 18.616-9.152 32.344-24.752 40.716-40.768l-6.292-2.548Zm25.844-2.132c-2.756 3.9-8.008 7.852-12.324 10.192 1.612 1.196 3.536 3.12 4.576 4.524 4.784-3.016 10.036-7.436 13.676-12.22l-5.928-2.496Zm1.196 14.612c-2.86 4.056-8.372 8.112-12.844 10.504 1.612 1.352 3.484 3.328 4.524 4.836 4.888-3.172 10.348-7.8 14.04-12.896l-5.72-2.444Zm1.144 14.508c-3.068 5.356-8.944 10.088-14.664 12.74 1.664 1.404 3.484 3.536 4.472 5.096 6.344-3.64 12.22-8.996 16.068-15.6l-5.876-2.236Zm4.42-27.768v5.2h29.588v-5.2h-29.588Zm8.008 20.54h13.676v3.328H552.34v-3.328Zm0 7.592h13.676v3.38H552.34v-3.38Zm0-15.08h13.676v3.276H552.34v-3.276Zm-5.824-4.576v27.56h25.636v-27.56h-25.636Zm9.256-5.72c-.26 2.548-.936 6.084-1.56 8.58l5.564 1.04a111.41 111.41 0 0 0 3.224-8.788l-7.228-.832Zm-3.484 33.384c-2.548 2.132-7.8 4.784-12.116 6.136 1.248 1.196 2.964 3.016 3.796 4.316 4.576-1.508 9.984-4.264 13.364-6.916l-5.044-3.536Zm7.956 3.64c3.38 1.976 7.904 4.94 10.036 6.864l4.94-3.64c-2.444-1.976-7.072-4.784-10.348-6.552l-4.628 3.328Zm16.952-9.412 2.132 6.344c4.264-1.3 9.568-2.912 14.56-4.576l-.728-5.512c-5.876 1.456-11.96 2.964-15.964 3.744Zm13.364-32.24v48.412h6.084v-48.412h-6.084Zm-10.14 5.668v28.028h5.98v-28.028h-5.98Zm24.18 3.276v5.876h22.048v-5.876H604.6Zm.052-9.36c-1.664 8.424-4.94 16.484-9.568 21.372 1.404 1.092 3.9 3.484 4.888 4.732 5.044-5.824 8.892-15.132 11.076-24.856l-6.396-1.248Zm13.104 12.48c-2.6 15.548-8.632 25.48-21.32 30.888 1.144 1.352 2.964 4.212 3.536 5.668 13.78-6.656 20.696-18.044 24.024-35.62l-6.24-.936Zm-10.712.884-5.668 1.092c3.38 16.12 9.204 28.34 21.528 34.424.884-1.664 2.86-4.16 4.264-5.408-11.388-4.94-17.368-16.276-20.124-30.108Zm23.764-10.192v5.096h46.488v-5.096h-46.488Zm10.92 9.568v5.252h36.036v-5.252h-36.036Zm-7.644 8.528v4.94H641v-4.94h-6.916Zm-4.524 8.06v5.044h11.18v-5.044h-11.18Zm18.304 10.088v3.9h13.52v-3.9h-13.52Zm-5.616-39.364v10.868h6.188v-10.868h-6.188Zm17.16 0v11.024h6.188v-11.024h-6.188Zm-6.344 22.204v5.876h4.108v-5.876h-4.108Zm-21.372-8.944v13.936h4.524v-13.936h-4.524Zm21.372 21.684v5.876h4.108v-5.876h-4.108Zm-4.628-8.632v3.64h8.424v3.068h-8.424v3.64h12.688v-10.348h-12.688Zm-2.548-6.396v26.26h4.316v-22.36h10.764v-3.9h-15.08Zm-6.916-7.228v15.6c0 5.72-.208 13.052-2.912 18.148 1.3.468 3.64 1.716 4.628 2.548 2.964-5.564 3.432-14.196 3.432-20.644V196.54h-5.148Zm22.152-3.016c.624 23.712 4.316 39.208 11.596 39.208 3.848 0 5.512-1.456 6.188-9.308-1.3-.468-2.964-1.612-4.056-2.704-.26 4.992-.78 6.552-1.664 6.604-2.704 0-6.552-12.012-6.5-33.8h-5.564Zm7.592.832c1.612 1.144 3.432 2.808 4.264 4.004l3.848-2.912c-.884-1.196-2.86-2.756-4.472-3.796l-3.64 2.704Zm1.924 9.308c-2.08 11.232-6.656 20.176-14.404 25.428 1.3.832 3.588 2.756 4.524 3.744 7.748-6.032 12.792-15.756 15.392-28.236l-5.512-.936Zm-38.584 11.388v4.264c0 2.964-.364 7.748-2.964 10.92.988.52 2.704 1.716 3.536 2.444 3.276-3.692 3.796-9.62 3.796-13.208v-4.42h-4.368Zm71.24-.416h5.356l1.352-17.784.26-7.748h-8.58l.26 7.748 1.352 17.784ZM706 228.52c2.6 0 4.576-1.924 4.576-4.628s-1.976-4.576-4.576-4.576c-2.652 0-4.628 1.872-4.628 4.576 0 2.704 1.924 4.628 4.628 4.628Z" fill="#424242"/></svg>

<svg width="1440" height="810" viewBox="0 0 1440 810" fill="none" xmlns="http://www.w3.org/2000/svg">
<path d="M162.34 186.972V192.432H209.868V186.972H162.34ZM176.328 183.852V199.868H194.944V183.852H189.276V195.344H181.788V183.852H176.328ZM169.724 197.528V219.108H175.236V197.528H169.724ZM163.068 201.012V206.264H172.636V201.012H163.068ZM161.872 212.92L163.016 218.276C166.136 217.236 169.464 216.092 172.74 214.896L172.012 210.164C168.164 211.204 164.576 212.296 161.872 212.92ZM196.088 197.58V212.088C196.088 216.976 197.024 218.536 201.496 218.536C202.276 218.536 204.096 218.536 204.98 218.536C208.308 218.536 209.66 216.82 210.18 211.048C208.724 210.684 206.488 209.852 205.448 208.968C205.292 212.972 205.084 213.648 204.304 213.648C203.992 213.648 202.796 213.648 202.484 213.648C201.808 213.648 201.704 213.492 201.704 212.036V197.58H196.088ZM206.124 199.712C204.2 201.376 201.132 203.352 198.376 204.704C199 205.796 199.78 207.616 200.092 208.76C203.108 207.564 206.8 205.9 209.92 204.08L206.124 199.712ZM182.984 206.732H188.132V212.972H182.984V206.732ZM177.94 202.26V217.496H193.436V202.26H177.94ZM177.212 221.76C177.836 225.14 178.252 229.508 178.252 232.212L184.388 231.276C184.336 228.676 183.712 224.36 182.984 221.084L177.212 221.76ZM187.56 221.864C188.808 225.192 190.004 229.56 190.368 232.212L196.608 230.964C196.14 228.26 194.788 224.048 193.436 220.876L187.56 221.864ZM198.012 221.552C200.456 225.036 203.368 229.82 204.512 232.732L210.7 230.08C209.348 227.116 206.228 222.54 203.784 219.264L198.012 221.552ZM167.748 219.732C166.396 223.632 163.848 227.74 161.3 229.976L167.176 232.524C169.984 229.716 172.428 225.4 173.78 221.24L167.748 219.732ZM215.172 188.272V193.68H260.88V188.272H215.172ZM245.436 212.296V213.128C241.276 221.968 229.368 226.076 215.9 227.428C216.888 228.78 218.032 231.172 218.5 232.732C233.164 230.704 245.956 225.816 251.572 214.064L247.672 212.088L246.632 212.296H245.436ZM233.736 208.656C230.564 212.296 224.948 216.144 217.46 218.952C218.76 219.784 220.58 221.708 221.464 223.008C229.42 219.524 235.348 215.208 239.976 210.06L233.736 208.656ZM232.644 212.296L228.12 216.82H247.412V212.296H232.644ZM234.828 183.8V208.656H240.808V183.8H234.828ZM235.192 196.852C230.928 203.56 222.348 209.176 213.04 211.672C214.236 212.816 215.848 215 216.628 216.404C226.352 213.232 234.776 206.784 239.768 198.568L235.192 196.852ZM240.548 196.904L235.92 198.776C241.12 206.836 249.804 213.544 259.216 216.872C260.048 215.416 261.764 213.18 263.012 212.036C253.756 209.332 244.968 203.508 240.548 196.904ZM223.336 193.472C221.828 197.736 218.604 201.376 214.444 203.612C215.64 204.392 217.668 206.16 218.552 207.148C222.868 204.34 226.612 199.92 228.588 194.512L223.336 193.472ZM222.088 200.336C224.064 201.636 226.716 203.508 227.964 204.704L231.24 200.752C229.888 199.608 227.184 197.892 225.208 196.8L222.088 200.336ZM249.076 193.524C247.88 196.8 245.54 199.868 242.68 201.844C243.876 202.676 245.852 204.444 246.788 205.432C249.856 202.936 252.664 198.984 254.224 194.824L249.076 193.524ZM247.88 200.128C251.26 202.156 255.732 205.276 257.916 207.2L261.192 203.248C258.904 201.376 254.328 198.516 251.052 196.644L247.88 200.128ZM227.34 221.916C235.868 224.88 247.62 229.716 253.288 232.836L258.748 228.52C252.248 225.296 240.392 220.824 232.384 218.224L227.34 221.916ZM265.924 194.2V199.972H282.772V194.2H265.924ZM272.944 183.852C271.332 194.2 268.472 207.928 266.236 216.144L271.332 218.848C273.776 209.488 276.792 195.552 278.82 184.476L272.944 183.852ZM268.992 215.312C273.932 218.536 279.912 223.476 282.564 227.064L286.256 222.072C283.5 218.536 277.312 213.96 272.372 210.892L268.992 215.312ZM280.588 194.2V195.344C279.6 211.776 274.92 223.268 266.028 227.896C267.276 229.092 268.94 231.328 269.772 232.836C280.172 226.492 285.216 215 286.464 194.668L282.72 194.044L281.628 194.2H280.588ZM286.204 186.608V192.224H303.208V186.608H286.204ZM303.624 200.96L302.844 206.576H310.332V200.96H303.624ZM308.252 200.96V202.052C307.732 218.224 307.004 224.568 305.756 225.972C305.184 226.596 304.664 226.7 303.78 226.7C302.688 226.7 300.296 226.7 297.8 226.492C298.788 228.104 299.516 230.6 299.62 232.316C302.324 232.472 304.924 232.472 306.588 232.212C308.408 231.952 309.656 231.432 310.956 229.768C312.724 227.636 313.348 220.928 314.024 203.508C314.076 202.78 314.128 200.96 314.128 200.96H308.252ZM290.832 188.532C290.728 203.872 290.884 219.316 283.396 228.624C284.956 229.56 286.932 231.38 287.92 232.784C296.24 222.228 296.76 205.328 296.968 188.532H290.832ZM301.648 186.608C301.388 193.628 300.608 202.676 299.724 208.344L305.392 208.76C306.172 203.04 306.952 193.888 307.368 186.608H301.648ZM319.692 195.916V205.484H325.568V200.7H358.172V206.212H364.36V195.916H319.692ZM357.704 183.748C349.072 185.516 333.94 186.504 321.096 186.764C321.616 187.908 322.188 189.988 322.292 191.288C335.448 191.08 351.048 190.144 361.812 187.908L357.704 183.748ZM325.984 191.444C327.336 193.264 328.74 195.812 329.208 197.476L334.46 195.292C333.888 193.524 332.38 191.132 330.872 189.416L325.984 191.444ZM337.216 190.404C338.568 192.38 339.816 195.136 340.18 196.852L345.484 194.928C345.016 193.108 343.612 190.508 342.208 188.584L337.216 190.404ZM350.268 204.964C353.232 207.356 356.716 210.892 358.224 213.284L362.696 209.956C361.084 207.512 357.444 204.184 354.428 202L350.268 204.964ZM336.904 201.948C339.608 203.092 342.78 205.016 344.392 206.42L347.512 202.936C345.848 201.532 342.52 199.816 339.92 198.776L336.904 201.948ZM353.7 188.584C352.816 190.872 351.048 194.044 349.644 196.176L354.324 197.944C355.936 196.124 357.912 193.316 359.836 190.56L353.7 188.584ZM350.84 214.584V215.468C345.952 223.32 333.056 226.648 318.496 227.688C319.64 228.884 321.2 231.38 321.772 232.836C336.644 231.172 350.528 227.064 356.976 216.924L353.076 214.428L352.088 214.584H350.84ZM333.94 217.548L329.104 219.42C336.124 227.636 347.824 231.484 362.332 232.732C363.112 231.12 364.62 228.52 365.92 227.22C351.776 226.492 339.816 223.58 333.94 217.548ZM336.644 210.424C333.108 214.844 326.4 218.432 319.64 220.512C320.836 221.448 322.916 223.528 323.852 224.62C330.456 222.02 337.684 217.704 342 212.296L336.644 210.424ZM332.484 202.988V206.628C332.484 210.944 333.836 212.192 339.556 212.192C340.752 212.192 345.224 212.192 346.472 212.192C350.372 212.192 351.828 211.152 352.348 207.096C350.892 206.836 348.708 206.16 347.616 205.432C347.408 207.564 347.096 207.876 345.796 207.876C344.704 207.876 341.116 207.876 340.336 207.876C338.568 207.876 338.204 207.772 338.204 206.576V202.988H332.484ZM327.7 202.936C326.452 205.796 324.112 208.656 321.148 210.32L325.412 213.804C328.792 211.62 330.976 208.292 332.38 204.964L327.7 202.936ZM335.292 214.584L331.028 218.848H352.244V214.584H335.292ZM391.504 186.452V192.224H412.616V186.452H391.504ZM389.736 204.548V210.424H418.44V204.548H389.736ZM400.708 198.464V225.66C400.708 226.388 400.448 226.596 399.616 226.648C398.732 226.7 396.028 226.648 393.376 226.544C394.208 228.208 395.248 230.912 395.56 232.628C399.408 232.68 402.268 232.472 404.348 231.536C406.376 230.548 407 228.884 407 225.764V198.464H400.708ZM410.38 186.452V187.804C408.82 190.924 405.232 196.072 402.164 199.036C403.152 199.868 404.868 201.584 405.7 202.676C409.756 199.244 414.176 193.732 417.244 189.208L413.188 186.14L411.888 186.452H410.38ZM369.924 194.2V199.972H386.72V194.2H369.924ZM376.892 183.852C375.28 194.2 372.472 207.928 370.236 216.144L375.332 218.848C377.776 209.488 380.792 195.552 382.768 184.476L376.892 183.852ZM372.94 215.26C378.4 218.848 385.004 224.308 387.916 228.26L391.66 223.216C388.644 219.316 381.78 214.272 376.372 210.892L372.94 215.26ZM384.588 194.2V195.344C383.548 211.776 378.92 223.268 370.08 227.896C371.328 229.092 372.992 231.328 373.824 232.836C384.12 226.44 389.164 214.948 390.36 194.668L386.668 194.044L385.576 194.2H384.588ZM422.548 199.608V205.12H469.348V199.608H422.548ZM427.072 189.468V194.876H456.816V189.468H427.072ZM436.224 217.756V222.436H459.468V217.756H436.224ZM436.224 225.92V231.172H459.468V225.92H436.224ZM439.344 183.852V202.676H445.48V183.852H439.344ZM462.224 185.36C453.124 198.412 437.836 208.344 420.936 213.752C422.08 215 423.952 217.6 424.68 218.952C441.528 212.764 457.388 202.312 467.58 188.116L462.224 185.36ZM432.74 209.28V232.732H438.98V214.376H456.92V232.524H463.42V209.28H432.74ZM486.924 195.552V222.748C486.924 229.976 488.9 232.056 495.92 232.056C497.428 232.056 503.564 232.056 505.124 232.056C511.572 232.056 513.392 229.04 514.224 219.576C512.404 219.212 509.596 218.016 508.14 216.924C507.724 224.36 507.256 225.816 504.604 225.816C503.148 225.816 497.948 225.816 496.7 225.816C493.996 225.816 493.58 225.452 493.58 222.8V195.552H486.924ZM487.548 188.324C491.656 191.132 497.012 195.24 499.976 197.788L504.084 192.64C501.12 190.352 495.816 186.452 491.604 183.8L487.548 188.324ZM478.604 197.944C477.668 204.08 475.744 210.684 473.092 215.208L479.176 217.444C481.776 212.972 483.44 205.588 484.584 199.452L478.604 197.944ZM509.232 204.08C512.352 209.02 515.576 215.728 516.772 220.096L522.804 217.028C521.4 212.66 518.176 206.316 514.9 201.428L509.232 204.08ZM511.728 186.868C504.76 201.532 490.876 217.132 473.248 225.192C474.548 226.44 476.368 228.728 477.304 230.184C495.92 221.032 509.648 205.432 518.02 189.416L511.728 186.868ZM537.572 184.736C534.816 188.636 529.564 192.588 525.248 194.928C526.86 196.124 528.784 198.048 529.824 199.452C534.608 196.436 539.86 192.016 543.5 187.232L537.572 184.736ZM538.768 199.348C535.908 203.404 530.396 207.46 525.924 209.852C527.536 211.204 529.408 213.18 530.448 214.688C535.336 211.516 540.796 206.888 544.488 201.792L538.768 199.348ZM539.912 213.856C536.844 219.212 530.968 223.944 525.248 226.596C526.912 228 528.732 230.132 529.72 231.692C536.064 228.052 541.94 222.696 545.788 216.092L539.912 213.856ZM544.332 186.088V191.288H573.92V186.088H544.332ZM552.34 206.628H566.016V209.956H552.34V206.628ZM552.34 214.22H566.016V217.6H552.34V214.22ZM552.34 199.14H566.016V202.416H552.34V199.14ZM546.516 194.564V222.124H572.152V194.564H546.516ZM555.772 188.844C555.512 191.392 554.836 194.928 554.212 197.424L559.776 198.464C560.712 196.228 561.96 192.952 563 189.676L555.772 188.844ZM552.288 222.228C549.74 224.36 544.488 227.012 540.172 228.364C541.42 229.56 543.136 231.38 543.968 232.68C548.544 231.172 553.952 228.416 557.332 225.764L552.288 222.228ZM560.244 225.868C563.624 227.844 568.148 230.808 570.28 232.732L575.22 229.092C572.776 227.116 568.148 224.308 564.872 222.54L560.244 225.868ZM577.196 216.456L579.328 222.8C583.592 221.5 588.896 219.888 593.888 218.224L593.16 212.712C587.284 214.168 581.2 215.676 577.196 216.456ZM590.56 184.216V232.628H596.644V184.216H590.56ZM580.42 189.884V217.912H586.4V189.884H580.42ZM604.6 193.16V199.036H626.648V193.16H604.6ZM604.652 183.8C602.988 192.224 599.712 200.284 595.084 205.172C596.488 206.264 598.984 208.656 599.972 209.904C605.016 204.08 608.864 194.772 611.048 185.048L604.652 183.8ZM617.756 196.28C615.156 211.828 609.124 221.76 596.436 227.168C597.58 228.52 599.4 231.38 599.972 232.836C613.752 226.18 620.668 214.792 623.996 197.216L617.756 196.28ZM607.044 197.164L601.376 198.256C604.756 214.376 610.58 226.596 622.904 232.68C623.788 231.016 625.764 228.52 627.168 227.272C615.78 222.332 609.8 210.996 607.044 197.164ZM630.808 186.972V192.068H677.296V186.972H630.808ZM641.728 196.54V201.792H677.764V196.54H641.728ZM634.084 205.068V210.008H641V205.068H634.084ZM629.56 213.128V218.172H640.74V213.128H629.56ZM647.864 223.216V227.116H661.384V223.216H647.864ZM642.248 183.852V194.72H648.436V183.852H642.248ZM659.408 183.852V194.876H665.596V183.852H659.408ZM653.064 206.056V211.932H657.172V206.056H653.064ZM631.692 197.112V211.048H636.216V197.112H631.692ZM653.064 218.796V224.672H657.172V218.796H653.064ZM648.436 210.164V213.804H656.86V216.872H648.436V220.512H661.124V210.164H648.436ZM645.888 203.768V230.028H650.204V207.668H660.968V203.768H645.888ZM638.972 196.54V212.14C638.972 217.86 638.764 225.192 636.06 230.288C637.36 230.756 639.7 232.004 640.688 232.836C643.652 227.272 644.12 218.64 644.12 212.192V196.54H638.972ZM661.124 193.524C661.748 217.236 665.44 232.732 672.72 232.732C676.568 232.732 678.232 231.276 678.908 223.424C677.608 222.956 675.944 221.812 674.852 220.72C674.592 225.712 674.072 227.272 673.188 227.324C670.484 227.324 666.636 215.312 666.688 193.524H661.124ZM668.716 194.356C670.328 195.5 672.148 197.164 672.98 198.36L676.828 195.448C675.944 194.252 673.968 192.692 672.356 191.652L668.716 194.356ZM670.64 203.664C668.56 214.896 663.984 223.84 656.236 229.092C657.536 229.924 659.824 231.848 660.76 232.836C668.508 226.804 673.552 217.08 676.152 204.6L670.64 203.664ZM632.056 215.052V219.316C632.056 222.28 631.692 227.064 629.092 230.236C630.08 230.756 631.796 231.952 632.628 232.68C635.904 228.988 636.424 223.06 636.424 219.472V215.052H632.056ZM703.296 214.636H708.652L710.004 196.852L710.264 189.104H701.684L701.944 196.852L703.296 214.636ZM706 228.52C708.6 228.52 710.576 226.596 710.576 223.892C710.576 221.188 708.6 219.316 706 219.316C703.348 219.316 701.372 221.188 701.372 223.892C701.372 226.596 703.296 228.52 706 228.52Z" fill="#424242"/>
</svg>
